packages/ui-icons/src/Basic/16/Server_16.svg

<svg xmlns="http://www.w3.org/2000/svg" viewBox="0 0 20 20"><path d="M12 18H8a2 2 0 0 1-2-2V4a2 2 0 0 1 2-2h4a2 2 0 0 1 2 2v12a2 2 0 0 1-2 2ZM8 3a1 1 0 0 0-1 1v12a1 1 0 0 0 1 1h4a1 1 0 0 0 1-1V4a1 1 0 0 0-1-1Zm4 5H8v1h4Zm0-2H8v1h4Zm0 4H8v1h4Zm-2 3a1 1 0 1 0 1 1 1 1 0 0 0-1-1Z"/></svg>

<svg id="ready" xmlns="http://www.w3.org/2000/svg" viewBox="0 0 20 20"><title>Megaicons_work_16_1.8_cp</title><path d="M12,18H8a2,2,0,0,1-2-2V4A2,2,0,0,1,8,2h4a2,2,0,0,1,2,2V16A2,2,0,0,1,12,18ZM8,3A1,1,0,0,0,7,4V16a1,1,0,0,0,1,1h4a1,1,0,0,0,1-1V4a1,1,0,0,0-1-1Zm4,5H8V9h4Zm0-2H8V7h4Zm0,4H8v1h4Zm-2,3a1,1,0,1,0,1,1A1,1,0,0,0,10,13Z"/></svg>
